X:71
T:Meiboomdans
C:Traditioneel
O:Hoogstraten, Vlaanderen
B:"Dansen uit Hoogstraten", Vlaams Dansarchief
Z:Bert Van Vreckem <http://flanders.blackmill.net/music/>
M:C/
L:1/4
N:Intro (AABCCC)x4
K:G
P:Intro
D|B B/A/ G/F/A/G/|{FG}F E E F/G/|D c B A|G A G D||
P:A
|:B B/A/ G/F/A/G/|{FG}F E E F/G/|D c c B/A/|B G G D|\
B B/A/ G/F/A/G/|{FG}F E E F/E/|D c B A|G A G D:|
P:B
|:G G G G/A/|B B/A/ G G/B/|A A A G/A/|B/G/F/E/ D D|\
G G G G/A/|B B/A/ G G/B/|A A/G/ F A|[1(G2G/)z/ D:|[2(G2G/) z/ B/c/||
P:C
|:d d e/d/c/B/|A A z A/B/|c c B A|(B2 B/)z/ B/c/|\
d d e/d/c/B/|A A z A/B/|c c B A|[1(G2G/)z/ B/c/:|[2(G2G/)z/|]
